source/img/icon-user.svg

<svg width="12" height="12" viewBox="0 0 12 12" fill="none" xmlns="http://www.w3.org/2000/svg">
<path opacity="0.1" d="M3.375 2.92978C3.375 4.45321 4.55275 5.69294 6 5.69294C7.44725 5.69294 8.625 4.45321 8.625 2.92978C8.625 1.40636 7.44725 0.166626 6 0.166626C4.55275 0.166626 3.375 1.40636 3.375 2.92978ZM10.6667 11.8333H11.25V11.2193C11.25 8.8497 9.41775 6.92101 7.16667 6.92101H4.83333C2.58167 6.92101 0.75 8.8497 0.75 11.2193V11.8333H10.6667Z" fill="#192144"/>
</svg>

<svg width="12" height="12" fill="none" xmlns="http://www.w3.org/2000/svg"><path opacity=".1" d="M3.38 2.93A2.7 2.7 0 006 5.69a2.7 2.7 0 002.63-2.76A2.7 2.7 0 006 .17a2.7 2.7 0 00-2.63 2.76zm7.29 8.9h.58v-.61a4.2 4.2 0 00-4.08-4.3H4.83a4.2 4.2 0 00-4.08 4.3v.61h9.92z" fill="#192144"/></svg>
